!!!OTL: Der Scheintod Sur le pont d'Avignon
!!!ARE: Europa, Mitteleuropa, France
!!!YOR: 3, S. 124
!!    1505 gedruckt in Venedig
!!!SCT: Q3058H
!!!YEM: Copyright 1995, estate of Helmut Schaffrath.
**kern
*ICvox
*Ivox
*M6/4
*k[b-]
*d:
{2d
=1
4.fn
8g
4a
4b-
4a
4g
=2
2a
2r}
{2a
=3
2.dd
4ccn
4b
4a
=4
2ccn
2a}
{2ccn
=5
4.a
8b-
4a
4fn
4g
4g
=6
2fn
2r}
{2a
=7
2.g
4fn
4e
4d
=8
2e
2d}
{2fn
=9
4e
4a
4fn
8e
8d
2e
=10
1d}
==
!!!AGN: Hochzeits - Lied
!! Melodievergleich mit Q0058G, anderes Lied.
!!!ONB: ESAC (Essen Associative Code) Database: BALLADE
!!!AMT: compound duple
!!!AIN: vox
!!!EED: Helmut Schaffrath
!!!EEV: 1.0
*-
